X: 3
M: C|
L: 1/8
K: C
c2e>c A2f>d | B>cd>B c2e>g |\
g>f^c>d f>e=c>e | e>df>d c>BA>G |
c>de>c d>ef>d | e>fg>e f>ga>b |\
c'>ga>f (3(egc') d>f | [e2c2][c2E2] [c2E2] :|
|: e>f |\
g>^fg>e c'2e>=f | (3gfe (3fed c2d>e |\
f>ga>g f>ed>c | (3ded (3cBA G3G |
(3ABc (3Bcd (3cde (3def | (3efg (3fga g2a>b |\
c'>ga>f (3(egc') d>f | ec (3dcB c2 H:|

